img/icons/collapse-icon.svg

<svg xmlns="http://www.w3.org/2000/svg" xmlns:xlink="http://www.w3.org/1999/xlink" stroke-width=".501" stroke-linejoin="bevel" fill-rule="evenodd" overflow="visible" width="40" height="40" viewBox="0 0 30 30" xmlns:v="https://vecta.io/nano"><defs><filter id="A"><feComponentTransfer><feFuncR type="gamma" amplitude="1.055" exponent=".416666666" offset="-.055"/><feFuncG type="gamma" amplitude="1.055" exponent=".416666666" offset="-.055"/><feFuncB type="gamma" amplitude="1.055" exponent=".416666666" offset="-.055"/></feComponentTransfer><feComponentTransfer><feFuncR type="linear" slope="-1" intercept="1"/><feFuncG type="linear" slope="-1" intercept="1"/><feFuncB type="linear" slope="-1" intercept="1"/><feFuncA type="linear" slope="1" intercept="0"/></feComponentTransfer><feComponentTransfer><feFuncR type="gamma" amplitude="1" exponent="2.4" offset="0"/><feFuncG type="gamma" amplitude="1" exponent="2.4" offset="0"/><feFuncB type="gamma" amplitude="1" exponent="2.4" offset="0"/></feComponentTransfer></filter><image id="B" width=".001" height=".001" xlink:href="data:image/jpeg;base64,/9j/4AAQSkZJRgABAQEAYABgAAD/4QA3RXhpZgAASUkqAAgAAAABADEBAgAVAAAAGgAAAAAAAABYYXJhIERlc2lnbmVyIFBybyBYOQD/2wBDAAgGBgcGBQgHBwcJCQgKDBQNDAsLDBkSEw8UHRofHh0aHBwgJC4nICIsIxwcKDcpLDAxNDQ0Hyc5PTgyPC4zNDL/wAALCAAwADABAREA/8QAHwAAAQUBAQEBAQEAAAAAAAAAAAECAwQFBgcICQoL/8QAtRAAAgEDAwIEAwUFBAQAAAF9AQIDAAQRBRIhMUEGE1FhByJxFDKBkaEII0KxwRVS0fAkM2JyggkKFhcYGRolJicoKSo0NTY3ODk6Q0RFRkdISUpTVFVWV1hZWmNkZWZnaGlqc3R1dnd4eXqDhIWGh4iJipKTlJWWl5iZmqKjpKWmp6ipqrKztLW2t7i5usLDxMXGx8jJytLT1NXW19jZ2uHi4+Tl5ufo6erx8vP09fb3+Pn6/9oACAEBAAA/APf6KKKKKKKKKKKKKKKKKKKKKKKKKKKKKKKKKKK//9k="/><pattern id="C" patternUnits="userSpaceOnUse" width="1000" height="1000" patternTransform="translate(0.75 29.25) scale(1 -1)"><use xlink:href="#B" transform="scale(36000)" filter="url(#A)"/></pattern></defs><g transform="matrix(1 0 0 -1 0 30)" fill="none" stroke="none"><mask id="D"><path fill="url(#C)" d="M-3-3h36v36H-3z"/></mask><path d="M.75 29.25h36v-36h-36v36z" fill="#000" mask="url(#D)"/><path d="M2.067 23.189l25.855.059c2.141.003 2.703-1.273 1.254-2.85L17.723 7.94a3.54 3.54 0 0 0-5.276-.022L.835 20.347c-1.461 1.565-.909 2.839 1.232 2.842z" fill="#fff"/></g></svg>

<?xml version="1.0" standalone="no"?>
<!DOCTYPE svg PUBLIC "-//W3C//DTD SVG 1.1//EN" "http://www.w3.org/Graphics/SVG/1.1/DTD/svg11.dtd">
<!--Generator: Xara Designer (www.xara.com), SVG filter version: 4.0.0.1-->
<svg stroke-width="0.501" stroke-linejoin="bevel" fill-rule="evenodd" xmlns:xlink="http://www.w3.org/1999/xlink" xmlns="http://www.w3.org/2000/svg" version="1.1" overflow="visible" width="30pt" height="30pt" viewBox="0 0 30 30">
 <defs>
  <marker id="DefaultArrow2" markerUnits="strokeWidth" viewBox="0 0 1 1" markerWidth="1" markerHeight="1" overflow="visible" orient="auto">
   <!-- REF_ARROW_STRAIGHT (-2) -->
   <g transform="scale(0.0092592592)">
    <!-- 1/108 -->
    <path d="M -9 54 L -9 -54 L 117 0 z"/>
   </g>
  </marker>
  <marker id="DefaultArrow3" markerUnits="strokeWidth" viewBox="0 0 1 1" markerWidth="1" markerHeight="1" overflow="visible" orient="auto">
   <!-- REF_ARROW_ANGLED -->
   <g transform="scale(0.0092592592)">
    <path d="M -27 54 L -9 0 L -27 -54 L 135 0 z"/>
   </g>
  </marker>
  <marker id="DefaultArrow4" markerUnits="strokeWidth" viewBox="0 0 1 1" markerWidth="1" markerHeight="1" overflow="visible" orient="auto">
   <!-- REF_ARROW_ROUNDED -->
   <g transform="scale(0.0092592592)">
    <path d="M -9,0 L -9,-45 C -9,-51.708 2.808,-56.580 9,-54 L 117,-9 C 120.916,-7.369 126.000,-4.242 126,0 C 126,4.242 120.916,7.369 117,9 L 9,54 C 2.808,56.580 -9,51.708 -9,45 z"/>
   </g>
  </marker>
  <marker id="DefaultArrow5" markerUnits="strokeWidth" viewBox="0 0 1 1" markerWidth="1" markerHeight="1" overflow="visible" orient="auto">
   <!-- REF_ARROW_SPOT -->
   <g transform="scale(0.0092592592)">
    <path d="M -54, 0 C -54,29.807 -29.807,54 0,54 C 29.807,54 54,29.807 54,0 C 54,-29.807 29.807,-54 0,-54 C -29.807,-54 -54,-29.807 -54,0 z"/>
   </g>
  </marker>
  <marker id="DefaultArrow6" markerUnits="strokeWidth" viewBox="0 0 1 1" markerWidth="1" markerHeight="1" overflow="visible" orient="auto">
   <!-- REF_ARROW_DIAMOND -->
   <g transform="scale(0.0092592592)">
    <path d="M -63,0 L 0,63 L 63,0 L 0,-63 z"/>
   </g>
  </marker>
  <marker id="DefaultArrow7" markerUnits="strokeWidth" viewBox="0 0 1 1" markerWidth="1" markerHeight="1" overflow="visible" orient="auto">
   <!-- REF_ARROW_FEATHER -->
   <g transform="scale(0.0092592592)">
    <path d="M 18,-54 L 108,-54 L 63,0 L 108,54 L 18, 54 L -36,0 z"/>
   </g>
  </marker>
  <marker id="DefaultArrow8" markerUnits="strokeWidth" viewBox="0 0 1 1" markerWidth="1" markerHeight="1" overflow="visible" orient="auto">
   <!-- REF_ARROW_FEATHER2 -->
   <g transform="scale(0.0092592592)">
    <path d="M -36,0 L 18,-54 L 54,-54 L 18,-18 L 27,-18 L 63,-54 L 99,-54 L 63,-18 L 72,-18 L 108,-54 L 144,-54 L 90,0 L 144,54 L 108,54 L 72,18 L 63,18 L 99,54 L 63,54 L 27,18 L 18,18 L 54,54 L 18,54 z"/>
   </g>
  </marker>
  <marker id="DefaultArrow9" markerUnits="strokeWidth" viewBox="0 0 1 1" markerWidth="1" markerHeight="1" overflow="visible" orient="auto">
   <!-- REF_ARROW_HOLLOWDIAMOND -->
   <g transform="scale(0.0092592592)">
    <path d="M 0,45 L -45,0 L 0, -45 L 45, 0 z M 0, 63 L-63, 0 L 0, -63 L 63, 0 z"/>
   </g>
  </marker>
  <filter id="StainedFilter">
   <feBlend mode="multiply" in2="BackgroundImage" in="SourceGraphic" result="blend"/>
   <feComposite in="blend" in2="SourceAlpha" operator="in" result="comp"/>
  </filter>
  <filter id="BleachFilter">
   <feBlend mode="screen" in2="BackgroundImage" in="SourceGraphic" result="blend"/>
   <feComposite in="blend" in2="SourceAlpha" operator="in" result="comp"/>
  </filter>
  <filter id="InvertTransparencyBitmapFilter">
   <feComponentTransfer>
    <feFuncR type="gamma" amplitude="1.055" exponent=".416666666" offset="-0.055"/>
    <feFuncG type="gamma" amplitude="1.055" exponent=".416666666" offset="-0.055"/>
    <feFuncB type="gamma" amplitude="1.055" exponent=".416666666" offset="-0.055"/>
   </feComponentTransfer>
   <feComponentTransfer>
    <feFuncR type="linear" slope="-1" intercept="1"/>
    <feFuncG type="linear" slope="-1" intercept="1"/>
    <feFuncB type="linear" slope="-1" intercept="1"/>
    <feFuncA type="linear" slope="1" intercept="0"/>
   </feComponentTransfer>
   <feComponentTransfer>
    <feFuncR type="gamma" amplitude="1" exponent="2.4" offset="0"/>
    <feFuncG type="gamma" amplitude="1" exponent="2.4" offset="0"/>
    <feFuncB type="gamma" amplitude="1" exponent="2.4" offset="0"/>
   </feComponentTransfer>
  </filter>
  <image id="Bitmap" width="0.001" height="0.001" xlink:href="data:image/jpeg;base64,/9j/4AAQSkZJRgABAQEAYABgAAD/4QA3RXhpZgAASUkqAAgAAAABADEBAgAVAAAAGgAAAAAAAABYYXJhIERlc2lnbmVyIFBybyBYOQD/2wBDAAgGBgcGBQgHBwcJCQgKDBQNDAsLDBkSEw8UHRofHh0aHBwgJC4nICIsIxwcKDcpLDAxNDQ0Hyc5PTgyPC4zNDL/wAALCAAwADABAREA/8QAHwAAAQUBAQEBAQEAAAAAAAAAAAECAwQFBgcICQoL/8QAtRAAAgEDAwIEAwUFBAQAAAF9AQIDAAQRBRIhMUEGE1FhByJxFDKBkaEII0KxwRVS0fAkM2JyggkKFhcYGRolJicoKSo0NTY3ODk6Q0RFRkdISUpTVFVWV1hZWmNkZWZnaGlqc3R1dnd4eXqDhIWGh4iJipKTlJWWl5iZmqKjpKWmp6ipqrKztLW2t7i5usLDxMXGx8jJytLT1NXW19jZ2uHi4+Tl5ufo6erx8vP09fb3+Pn6/9oACAEBAAA/APf6KKKKKKKKKKKKKKKKKKKKKKKKKKKKKKKKKKK//9k=">
   <title>Bitmap27</title>
  </image>
  <pattern id="BitmapFill" patternUnits="userSpaceOnUse" width="1000" height="1000" patternTransform="translate(0.75 29.25) scale(1 -1)">
   <use xlink:href="#Bitmap" transform="scale(36000 36000)" filter="url(#InvertTransparencyBitmapFilter)"/>
  </pattern>
 </defs>
 <g id="Document" fill="none" stroke="black" font-family="Times New Roman" font-size="16" transform="scale(1 -1)">
  <g id="Spread" transform="translate(0 -30)">
   <g id="Page background">
    <g id="Group" stroke="none">
     <mask id="TranspMask">
      <rect x="-10%" y="-10%" width="120%" height="120%" fill="url(#BitmapFill)" stroke="none"/>
     </mask>
     <path d="M 0.75,29.25 L 36.75,29.25 L 36.75,-6.75 L 0.75,-6.75 L 0.75,29.25 Z" fill="#000000" marker-start="none" marker-end="none" mask="url(#TranspMask)"/>
     <path d="M 0,29.999 L 0,0 L 29.999,0 L 29.999,29.999 L 0,29.999 Z" stroke-linejoin="bevel" stroke-width="0" fill="none" marker-start="none" marker-end="none" stroke-miterlimit="79.8403193612775"/>
    </g>
   </g>
   <g id="Layer 1">
    <path d="M 2.067,23.189 L 27.922,23.248 C 30.063,23.251 30.625,21.975 29.176,20.398 L 17.723,7.94 C 16.274,6.363 13.908,6.353 12.447,7.918 L 0.835,20.347 C -0.626,21.912 -0.074,23.186 2.067,23.189 Z" fill="#ffffff" stroke-linecap="round" stroke="none" stroke-width="1.072" stroke-linejoin="miter" marker-start="none" marker-end="none" stroke-miterlimit="79.8403193612775"/>
   </g>
  </g>
 </g>
</svg>
